X:1
T:Out on the Ocean (jig)
I:titlefont Times-Roman 24
I:partsfont Times-Roman 20
M:6/8
L:1/8
O:Trad. (29.11.2013/NS)
R: jig
K:Gmaj
|:"G"D2B BAG|BdB A2B|"C"GED G2A|B2B AGE|
"G"D2B BAG|BdB A2B|"C"GED G2A|"D"BGG G3:|
|:"Em"e2e edB|e2e edB|"D"d2d dBA|"(C)"d2d dBA|
"G"G2A "G/F#"B2d|"Em"ege "D"dBA|"C"GED G2A|"D"BGG G3:|
%%vskip
P:The Hag At The Churn
K:Dmix
|:"D"A2G ADD|A2G Adc|A2G ADD|EFG EFG:|
"D"AdB "C"c3|"D"Add efg|"D"AdB "C"c2A|"G"GEG AED|
"D"AdB "C"c3|"D"Add efg|"A"age dBA|GEG AED||
%%vskip
P:Kesh Jig
K:Gmaj
|:"G"G2G GAB|"D"A2A ABd|"G"edd gdd|"D"edB dBA|
"G"G2G GAB|"D"A2A ABd|"G"edd "C"gdB|"D"AGF "G"G3:|
"G"B2B d2d|ege dBA|B2B dBG|"D"ABA A2A|
"G"B2B dBd|ege d2d|"C"g2g aga| "D"bgg "G"g3:|

